flaticon/business/rewind-time.svg

<svg xmlns="http://www.w3.org/2000/svg" width="32" height="32" viewBox="0 0 24 24">
    <path d="M 11.996094 20.804688 C 16.847656 20.804688 20.796875 16.855469 20.796875 12.003906 C 20.796875 7.148438 16.847656 3.199219 11.996094 3.199219 C 7.144531 3.199219 3.195312 7.148438 3.195312 12.003906 C 3.195312 16.855469 7.144531 20.804688 11.996094 20.804688 Z M 11.996094 4 C 16.40625 4 19.996094 7.589844 19.996094 12.003906 C 19.996094 16.414062 16.40625 20.003906 11.996094 20.003906 C 7.585938 20.003906 3.996094 16.414062 3.996094 12.003906 C 3.996094 7.589844 7.585938 4 11.996094 4 Z M 11.996094 4"/>
    <path d="M11.996094 6C12.21875 6 12.394531 5.820312 12.394531 5.601562L12.394531 4.800781C12.394531 4.578125 12.21875 4.402344 11.996094 4.402344 11.773438 4.402344 11.597656 4.578125 11.597656 4.800781L11.597656 5.601562C11.597656 5.820312 11.773438 6 11.996094 6zM11.996094 18.003906C11.773438 18.003906 11.597656 18.183594 11.597656 18.402344L11.597656 19.203125C11.597656 19.425781 11.773438 19.601562 11.996094 19.601562 12.21875 19.601562 12.394531 19.425781 12.394531 19.203125L12.394531 18.402344C12.394531 18.183594 12.21875 18.003906 11.996094 18.003906zM18.398438 12.402344L19.195312 12.402344C19.417969 12.402344 19.597656 12.222656 19.597656 12.003906 19.597656 11.78125 19.417969 11.601562 19.195312 11.601562L18.398438 11.601562C18.175781 11.601562 17.996094 11.78125 17.996094 12.003906 17.996094 12.222656 18.175781 12.402344 18.398438 12.402344zM5.59375 11.601562L4.792969 11.601562C4.574219 11.601562 4.394531 11.78125 4.394531 12.003906 4.394531 12.222656 4.574219 12.402344 4.792969 12.402344L5.59375 12.402344C5.816406 12.402344 5.996094 12.222656 5.996094 12.003906 5.996094 11.78125 5.816406 11.601562 5.59375 11.601562zM7.59375 16.402344C7.699219 16.402344 7.800781 16.363281 7.878906 16.285156L11.1875 12.976562C11.425781 13.117188 11.699219 13.203125 11.996094 13.203125 12.878906 13.203125 13.597656 12.484375 13.597656 11.601562 13.597656 10.859375 13.085938 10.238281 12.394531 10.058594L12.394531 8C12.394531 7.78125 12.21875 7.601562 11.996094 7.601562 11.773438 7.601562 11.597656 7.78125 11.597656 8L11.597656 10.058594C10.90625 10.238281 10.394531 10.859375 10.394531 11.601562 10.394531 11.898438 10.480469 12.171875 10.621094 12.410156L7.3125 15.71875C7.15625 15.875 7.15625 16.128906 7.3125 16.285156 7.390625 16.363281 7.492188 16.402344 7.59375 16.402344zM11.996094 10.800781C12.4375 10.800781 12.796875 11.160156 12.796875 11.601562 12.796875 12.042969 12.4375 12.402344 11.996094 12.402344 11.554688 12.402344 11.195312 12.042969 11.195312 11.601562 11.195312 11.160156 11.554688 10.800781 11.996094 10.800781zM11.996094 10.800781"/>
    <path d="M4.027344 4L7.195312 4C7.417969 4 7.59375 3.820312 7.59375 3.601562 7.59375 3.378906 7.417969 3.199219 7.195312 3.199219L5.074219 3.199219C7.042969 1.644531 9.464844.800781 11.996094.800781 18.171875.800781 23.199219 5.824219 23.199219 12.003906 23.199219 12.222656 23.378906 12.402344 23.597656 12.402344 23.820312 12.402344 24 12.222656 24 12.003906 24 5.382812 18.613281 0 11.996094 0 9.203125 0 6.539062.964844 4.394531 2.722656L4.394531.398438C4.394531.179688 4.214844 0 3.996094 0 3.773438 0 3.59375.179688 3.59375.398438L3.59375 4 3.953125 4C3.976562 4.003906 4.003906 4.003906 4.027344 4zM1.921875 16.894531C1.824219 16.695312 1.585938 16.613281 1.386719 16.710938 1.1875 16.804688 1.105469 17.046875 1.203125 17.246094 1.269531 17.386719 1.414062 17.472656 1.5625 17.472656 1.617188 17.472656 1.679688 17.457031 1.734375 17.429688 1.933594 17.335938 2.019531 17.09375 1.921875 16.894531zM3.140625 18.859375C3.007812 18.683594 2.757812 18.652344 2.582031 18.789062 2.40625 18.921875 2.375 19.175781 2.511719 19.347656 2.589844 19.453125 2.710938 19.503906 2.828125 19.503906 2.914062 19.503906 3 19.476562 3.074219 19.417969 3.246094 19.285156 3.277344 19.03125 3.140625 18.859375zM2.480469 17.90625C2.367188 17.71875 2.117188 17.664062 1.929688 17.777344 1.742188 17.898438 1.6875 18.144531 1.800781 18.332031 1.878906 18.453125 2.011719 18.519531 2.140625 18.519531 2.214844 18.519531 2.285156 18.5 2.355469 18.460938 2.542969 18.34375 2.597656 18.09375 2.480469 17.90625zM3.335938 19.722656C3.175781 19.875 3.171875 20.128906 3.324219 20.289062 3.398438 20.371094 3.507812 20.410156 3.609375 20.410156 3.710938 20.410156 3.8125 20.375 3.886719 20.300781 4.046875 20.148438 4.054688 19.894531 3.898438 19.734375 3.746094 19.574219 3.496094 19.570312 3.335938 19.722656zM4.179688 20.574219C4.035156 20.742188 4.054688 20.996094 4.222656 21.140625 4.296875 21.203125 4.390625 21.234375 4.484375 21.234375 4.59375 21.234375 4.707031 21.1875 4.785156 21.09375 4.929688 20.925781 4.910156 20.675781 4.742188 20.53125 4.574219 20.386719 4.324219 20.40625 4.179688 20.574219zM.839844 15.210938C1.050781 15.15625 1.183594 14.9375 1.128906 14.722656 1.074219 14.511719.859375 14.378906.640625 14.433594.429688 14.488281.296875 14.703125.355469 14.917969.398438 15.097656.5625 15.222656.742188 15.222656.773438 15.222656.804688 15.21875.839844 15.210938zM.566406 14.039062C.785156 14.007812.9375 13.804688.90625 13.585938.875 13.367188.671875 13.214844.453125 13.246094.234375 13.277344.0820312 13.480469.113281 13.699219.140625 13.898438.3125 14.042969.511719 14.042969.53125 14.042969.546875 14.042969.566406 14.039062zM1.464844 15.832031C1.394531 15.621094 1.164062 15.515625.953125 15.589844.746094 15.667969.640625 15.894531.71875 16.101562.773438 16.265625.929688 16.367188 1.089844 16.367188 1.136719 16.367188 1.183594 16.359375 1.230469 16.34375 1.4375 16.265625 1.542969 16.039062 1.464844 15.832031zM.402344 12.851562C.40625 12.851562.414062 12.851562.417969 12.851562.636719 12.839844.808594 12.652344.800781 12.433594.792969 12.214844.605469 12.042969.386719 12.050781.167969 12.058594-.0078125 12.242188.00390625 12.464844.0117188 12.675781.191406 12.851562.402344 12.851562zM5.105469 21.339844C4.980469 21.519531 5.027344 21.769531 5.207031 21.894531 5.277344 21.945312 5.355469 21.964844 5.433594 21.964844 5.5625 21.964844 5.6875 21.902344 5.761719 21.792969 5.890625 21.613281 5.84375 21.359375 5.664062 21.234375 5.480469 21.113281 5.230469 21.15625 5.105469 21.339844zM19.574219 20.246094L19.574219 20.242188C19.410156 20.394531 19.398438 20.648438 19.550781 20.8125 19.628906 20.894531 19.738281 20.941406 19.84375 20.941406 19.941406 20.941406 20.039062 20.902344 20.113281 20.835938 20.277344 20.683594 20.285156 20.429688 20.136719 20.269531 19.988281 20.105469 19.734375 20.09375 19.574219 20.246094zM20.386719 19.417969C20.238281 19.582031 20.253906 19.835938 20.417969 19.984375 20.492188 20.050781 20.589844 20.082031 20.679688 20.082031 20.792969 20.082031 20.902344 20.039062 20.980469 19.945312 21.128906 19.785156 21.113281 19.53125 20.949219 19.382812 20.78125 19.238281 20.53125 19.25 20.386719 19.417969zM21.105469 18.511719C20.976562 18.691406 21.015625 18.941406 21.199219 19.070312 21.269531 19.125 21.347656 19.148438 21.429688 19.148438 21.558594 19.148438 21.675781 19.085938 21.757812 18.980469 21.886719 18.800781 21.84375 18.550781 21.664062 18.417969 21.484375 18.292969 21.234375 18.335938 21.105469 18.511719zM18.679688 20.984375C18.503906 21.117188 18.46875 21.367188 18.601562 21.542969 18.675781 21.652344 18.796875 21.703125 18.921875 21.703125 19.003906 21.703125 19.089844 21.679688 19.15625 21.628906 19.335938 21.496094 19.375 21.242188 19.242188 21.066406 19.109375 20.886719 18.855469 20.851562 18.679688 20.984375zM17.71875 21.628906C17.527344 21.742188 17.464844 21.988281 17.582031 22.175781 17.652344 22.304688 17.789062 22.371094 17.925781 22.371094 17.992188 22.371094 18.066406 22.355469 18.128906 22.316406 18.316406 22.203125 18.382812 21.957031 18.265625 21.769531 18.152344 21.578125 17.910156 21.515625 17.71875 21.628906zM22.277344 17.386719C22.085938 17.277344 21.839844 17.347656 21.730469 17.539062L21.734375 17.539062C21.621094 17.730469 21.691406 17.976562 21.882812 18.082031 21.941406 18.117188 22.007812 18.136719 22.078125 18.136719 22.21875 18.136719 22.355469 18.0625 22.425781 17.933594 22.539062 17.742188 22.46875 17.5 22.277344 17.386719zM23.578125 12.800781C23.359375 12.777344 23.160156 12.9375 23.136719 13.15625 23.113281 13.378906 23.273438 13.574219 23.492188 13.597656 23.511719 13.597656 23.523438 13.597656 23.539062 13.597656 23.738281 13.597656 23.914062 13.445312 23.933594 13.238281 23.957031 13.023438 23.796875 12.820312 23.578125 12.800781zM23.433594 13.992188C23.21875 13.945312 23.003906 14.085938 22.960938 14.300781 22.914062 14.519531 23.054688 14.730469 23.269531 14.773438 23.296875 14.78125 23.324219 14.78125 23.355469 14.78125 23.539062 14.78125 23.707031 14.65625 23.742188 14.46875 23.789062 14.25 23.648438 14.039062 23.433594 13.992188zM23.164062 15.164062C22.957031 15.09375 22.730469 15.210938 22.664062 15.421875 22.597656 15.628906 22.714844 15.859375 22.921875 15.925781 22.960938 15.9375 23.003906 15.941406 23.046875 15.941406 23.214844 15.941406 23.371094 15.835938 23.425781 15.667969 23.492188 15.453125 23.378906 15.230469 23.164062 15.164062zM22.78125 16.296875C22.578125 16.210938 22.339844 16.300781 22.253906 16.503906 22.160156 16.707031 22.253906 16.941406 22.457031 17.03125 22.507812 17.054688 22.566406 17.066406 22.617188 17.066406 22.773438 17.066406 22.917969 16.976562 22.984375 16.828125 23.074219 16.621094 22.980469 16.386719 22.78125 16.296875zM16.695312 22.171875C16.492188 22.261719 16.410156 22.5 16.5 22.699219 16.570312 22.847656 16.710938 22.929688 16.863281 22.929688 16.921875 22.929688 16.976562 22.917969 17.03125 22.894531 17.234375 22.804688 17.320312 22.5625 17.226562 22.363281 17.132812 22.164062 16.898438 22.074219 16.695312 22.171875zM9.90625 23.007812C9.691406 22.96875 9.480469 23.109375 9.441406 23.328125 9.398438 23.542969 9.539062 23.753906 9.757812 23.796875 9.785156 23.800781 9.808594 23.800781 9.832031 23.800781 10.019531 23.800781 10.1875 23.667969 10.226562 23.476562 10.269531 23.261719 10.125 23.046875 9.90625 23.007812zM11.054688 23.164062C10.835938 23.144531 10.640625 23.308594 10.625 23.527344 10.605469 23.753906 10.769531 23.945312 10.988281 23.964844 10.988281 23.960938 10.988281 23.960938 10.988281 23.960938 11 23.964844 11.011719 23.964844 11.019531 23.964844 11.226562 23.964844 11.402344 23.804688 11.417969 23.59375 11.4375 23.375 11.277344 23.183594 11.054688 23.164062zM8.785156 22.734375C8.570312 22.671875 8.347656 22.792969 8.285156 23 8.222656 23.210938 8.339844 23.4375 8.550781 23.5 8.589844 23.511719 8.632812 23.515625 8.667969 23.515625 8.839844 23.515625 9 23.402344 9.050781 23.230469 9.117188 23.019531 8.996094 22.796875 8.785156 22.734375zM7.691406 22.34375C7.488281 22.257812 7.253906 22.355469 7.171875 22.558594 7.082031 22.765625 7.179688 22.996094 7.382812 23.085938 7.433594 23.105469 7.488281 23.113281 7.539062 23.113281 7.695312 23.113281 7.84375 23.019531 7.90625 22.867188 7.992188 22.664062 7.894531 22.429688 7.691406 22.34375zM13.367188 23.121094C13.148438 23.148438 12.992188 23.347656 13.019531 23.5625 13.042969 23.769531 13.214844 23.914062 13.417969 23.914062 13.433594 23.914062 13.449219 23.914062 13.464844 23.910156 13.464844 23.914062 13.464844 23.914062 13.464844 23.914062 13.683594 23.886719 13.839844 23.6875 13.8125 23.46875 13.789062 23.246094 13.589844 23.09375 13.367188 23.121094zM15.621094 22.605469C15.414062 22.671875 15.300781 22.898438 15.371094 23.113281 15.429688 23.277344 15.585938 23.378906 15.75 23.378906 15.792969 23.378906 15.835938 23.371094 15.882812 23.359375 16.089844 23.289062 16.199219 23.058594 16.128906 22.851562 16.058594 22.640625 15.828125 22.53125 15.621094 22.605469zM14.507812 22.917969C14.292969 22.96875 14.15625 23.183594 14.207031 23.398438 14.25 23.582031 14.417969 23.707031 14.597656 23.707031 14.628906 23.707031 14.65625 23.707031 14.6875 23.699219 14.902344 23.652344 15.035156 23.4375 14.988281 23.21875 14.9375 23.003906 14.722656 22.871094 14.507812 22.917969zM12.210938 23.199219C11.992188 23.203125 11.816406 23.386719 11.820312 23.609375 11.824219 23.828125 12.003906 24 12.21875 24 12.222656 24 12.222656 24 12.226562 24 12.449219 23.996094 12.625 23.816406 12.621094 23.589844 12.617188 23.371094 12.433594 23.195312 12.210938 23.199219zM6.648438 21.84375C6.453125 21.734375 6.210938 21.808594 6.101562 22.003906 6 22.195312 6.070312 22.441406 6.265625 22.542969 6.328125 22.578125 6.390625 22.597656 6.453125 22.597656 6.597656 22.597656 6.734375 22.519531 6.808594 22.382812 6.914062 22.191406 6.84375 21.945312 6.648438 21.84375zM6.648438 21.84375"/>
</svg>

<svg xmlns="http://www.w3.org/2000/svg" width="32" height="32" viewBox="0 0 24 24">
    <path d="M11.996 20.805c4.852 0 8.8-3.95 8.8-8.801 0-4.856-3.948-8.805-8.8-8.805-4.851 0-8.8 3.95-8.8 8.805 0 4.851 3.949 8.8 8.8 8.8zm0-16.805c4.41 0 8 3.59 8 8.004 0 4.41-3.59 8-8 8s-8-3.59-8-8c0-4.414 3.59-8.004 8-8.004zm0 0"/>
    <path d="M11.996 6c.223 0 .399-.18.399-.398V4.8a.395.395 0 0 0-.399-.399.395.395 0 0 0-.398.399v.8c0 .22.175.399.398.399zm0 0M11.996 18.004a.398.398 0 0 0-.398.398v.801c0 .223.175.399.398.399a.395.395 0 0 0 .399-.399v-.8a.398.398 0 0 0-.399-.4zm0 0M18.398 12.402h.797a.401.401 0 1 0 0-.8h-.797a.401.401 0 0 0 0 .8zm0 0M5.594 11.602h-.801a.401.401 0 0 0 0 .8h.8a.401.401 0 1 0 0-.8zm0 0M7.594 16.402c.105 0 .207-.039.285-.117l3.309-3.308c.238.14.511.226.808.226.883 0 1.602-.719 1.602-1.601 0-.743-.512-1.364-1.203-1.543V8a.398.398 0 1 0-.797 0v2.059c-.692.18-1.203.8-1.203 1.543 0 .296.085.57.226.808L7.312 15.72a.4.4 0 0 0 .282.683zm4.402-5.601a.802.802 0 0 1 0 1.601.802.802 0 0 1 0-1.601zm0 0"/>
    <path d="M4.027 4h3.168c.223 0 .399-.18.399-.398a.398.398 0 0 0-.399-.403h-2.12A11.13 11.13 0 0 1 11.995.801C18.172.8 23.2 5.824 23.2 12.004a.4.4 0 0 0 .801 0C24 5.383 18.613 0 11.996 0a11.95 11.95 0 0 0-7.601 2.723V.398a.4.4 0 0 0-.801 0V4h.36c.023.004.05.004.073 0zm0 0M1.922 16.895a.399.399 0 0 0-.535-.184.398.398 0 0 0-.184.535.4.4 0 0 0 .36.227.4.4 0 0 0 .171-.043.4.4 0 0 0 .188-.535zm0 0M3.14 18.86a.394.394 0 0 0-.558-.07.395.395 0 0 0-.07.558c.078.105.199.156.316.156a.397.397 0 0 0 .313-.645zm0 0M2.48 17.906a.402.402 0 0 0-.55-.129.409.409 0 0 0-.13.555.409.409 0 0 0 .555.129.403.403 0 0 0 .125-.555zm0 0M3.336 19.723a.4.4 0 0 0-.012.566.387.387 0 0 0 .285.121.397.397 0 0 0 .29-.676.396.396 0 0 0-.563-.011zm0 0M4.18 20.574a.402.402 0 0 0 .043.567.406.406 0 0 0 .261.093c.11 0 .223-.047.301-.14a.397.397 0 0 0-.043-.563.397.397 0 0 0-.562.043zm0 0M.84 15.21a.404.404 0 0 0 .289-.487.402.402 0 0 0-.488-.29.395.395 0 0 0-.286.485.4.4 0 0 0 .485.293zm0 0M.566 14.04a.4.4 0 1 0-.054.003c.02 0 .035 0 .054-.004zm0 0M1.465 15.832a.396.396 0 0 0-.512-.242.396.396 0 0 0-.234.512c.054.164.21.265.37.265a.396.396 0 0 0 .375-.535zm0 0M.402 12.852h.016c.219-.012.39-.2.383-.418a.4.4 0 0 0-.414-.383.395.395 0 0 0-.383.414c.008.21.187.387.398.387zm0 0M5.105 21.34a.4.4 0 0 0 .329.625.4.4 0 0 0 .23-.73.405.405 0 0 0-.559.105zm0 0M19.574 20.246v-.004a.402.402 0 0 0 .27.7.401.401 0 0 0 .293-.672.393.393 0 0 0-.563-.024zm0 0M20.387 19.418a.401.401 0 0 0 .031.566.397.397 0 0 0 .262.098.383.383 0 0 0 .3-.137.397.397 0 1 0-.593-.527zm0 0M21.105 18.512c-.128.18-.09.43.094.558.07.055.149.078.23.078a.415.415 0 0 0 .329-.168.406.406 0 0 0-.094-.562.408.408 0 0 0-.559.094zm0 0M18.68 20.984a.399.399 0 0 0-.078.559c.074.11.195.16.32.16a.39.39 0 0 0 .234-.074.401.401 0 1 0-.476-.645zm0 0M17.719 21.629a.393.393 0 0 0-.137.547c.07.129.207.195.344.195a.397.397 0 0 0 .34-.602.397.397 0 0 0-.547-.14zm0 0M22.277 17.387a.403.403 0 0 0-.547.152h.004a.393.393 0 0 0 .149.543.396.396 0 0 0 .543-.148.4.4 0 0 0-.149-.547zm0 0M23.578 12.8a.4.4 0 1 0-.086.797h.047a.399.399 0 0 0 .04-.797zm0 0M23.434 13.992a.398.398 0 0 0-.473.309.396.396 0 0 0 .394.48.39.39 0 0 0 .387-.312.402.402 0 0 0-.308-.477zm0 0M23.164 15.164a.394.394 0 0 0-.5.258.405.405 0 0 0 .258.504c.039.011.082.015.125.015a.397.397 0 0 0 .117-.777zm0 0M22.781 16.297a.401.401 0 0 0-.527.207.395.395 0 0 0 .203.527.396.396 0 0 0 .527-.203.404.404 0 0 0-.203-.531zm0 0M16.695 22.172a.396.396 0 0 0 .168.758.397.397 0 0 0 .363-.566.395.395 0 0 0-.53-.192zm0 0M9.906 23.008a.399.399 0 0 0-.465.32.4.4 0 0 0 .317.469c.027.004.05.004.074.004a.4.4 0 0 0 .074-.793zm0 0M11.055 23.164a.396.396 0 0 0-.43.363.4.4 0 0 0 .363.438v-.004a.097.097 0 0 0 .032.004.4.4 0 0 0 .398-.371.395.395 0 0 0-.363-.43zm0 0M8.785 22.734a.403.403 0 0 0-.5.266.402.402 0 0 0 .266.5.4.4 0 0 0 .5-.27.395.395 0 0 0-.266-.496zm0 0M7.691 22.344a.395.395 0 0 0-.52.215.4.4 0 0 0 .212.527.44.44 0 0 0 .156.027.4.4 0 0 0 .152-.77zm0 0M13.367 23.121a.398.398 0 0 0 .051.793c.016 0 .031 0 .047-.004v.004a.4.4 0 0 0 .348-.445.393.393 0 0 0-.446-.348zm0 0M15.621 22.605a.399.399 0 0 0-.25.508.403.403 0 0 0 .379.266.546.546 0 0 0 .133-.02c.207-.07.316-.3.246-.507a.395.395 0 0 0-.508-.247zm0 0M14.508 22.918a.402.402 0 0 0-.301.48c.043.184.211.309.39.309.032 0 .06 0 .09-.008a.4.4 0 0 0-.18-.781zm0 0M12.21 23.2a.401.401 0 0 0 .009.8h.008a.401.401 0 0 0-.016-.8zm0 0M6.648 21.844a.401.401 0 0 0-.546.16.4.4 0 0 0 .164.539.383.383 0 0 0 .187.055.404.404 0 0 0 .356-.215.395.395 0 0 0-.16-.54zm0 0"/>
</svg>
